packages/icons/raw/imported/SportFieldHockey.svg

<svg width="32" height="32" viewBox="0 0 32 32" fill="none" xmlns="http://www.w3.org/2000/svg">
<path d="M13.1034 9.67786C13.2449 9.91502 13.5518 9.9926 13.7889 9.85115C14.0261 9.70969 14.1037 9.40276 13.9622 9.1656L13.1034 9.67786ZM11.9398 5.77497C11.7984 5.53781 11.4914 5.46023 11.2543 5.60168C11.0171 5.74314 10.9395 6.05007 11.081 6.28723L11.9398 5.77497ZM21.9106 18.2161L21.4943 18.4931L21.4982 18.4988L21.9106 18.2161ZM23.785 19.1846L24.1166 19.559L24.1233 19.5529L23.785 19.1846ZM24.2385 17.8724L23.7404 17.8286L23.7399 17.8353L24.2385 17.8724ZM25.8711 16.5914L25.746 17.0755L25.8711 16.5914ZM26.9897 17.9349L26.492 17.9831L26.4928 17.991L26.4938 17.9989L26.9897 17.9349ZM25.7804 21.2155L25.4163 20.8727L25.4127 20.8766L25.7804 21.2155ZM23.6036 22.2465V21.7465H23.5855L23.5675 21.7478L23.6036 22.2465ZM19.7338 19.6845L20.1735 19.4466L20.1682 19.4366L20.1623 19.4269L19.7338 19.6845ZM13.5295 4.72375C13.3769 4.49359 13.0667 4.43069 12.8365 4.58326C12.6063 4.73583 12.5434 5.0461 12.696 5.27627L13.5295 4.72375ZM14.4343 7.89859C14.5869 8.12875 14.8972 8.19165 15.1273 8.03908C15.3575 7.88651 15.4204 7.57624 15.2678 7.34607L14.4343 7.89859ZM16 20.9372L16.0143 20.4374L16.0072 20.4372H16V20.9372ZM19.303 5.27773C19.4564 5.0481 19.3946 4.73761 19.165 4.58423C18.9353 4.43084 18.6248 4.49265 18.4715 4.72227L19.303 5.27773ZM10.0592 18.2161L10.4717 18.4988L10.475 18.4938L10.0592 18.2161ZM8.1848 19.1846L7.8465 19.5529L7.85327 19.5589L8.1848 19.1846ZM7.73131 17.8724L8.22998 17.8353L8.22939 17.8286L7.73131 17.8724ZM6.09873 16.5914L6.20503 17.08L6.21446 17.0779L6.22381 17.0755L6.09873 16.5914ZM5.01035 17.9037L5.50624 17.9676L5.50726 17.9597L5.50803 17.9518L5.01035 17.9037ZM6.21967 21.1842L6.58737 20.8454L6.58371 20.8415L6.21967 21.1842ZM8.39643 22.2153L8.4326 21.7166L8.41454 21.7153H8.39643V22.2153ZM12.2662 19.6533L11.8378 19.3956L11.8319 19.4053L11.8265 19.4153L12.2662 19.6533ZM20.8878 6.28875C21.0301 6.05211 20.9537 5.7449 20.7171 5.60257C20.4804 5.46024 20.1732 5.5367 20.0309 5.77334L20.8878 6.28875ZM17.4991 15.9157L19.4945 14.6034L18.945 13.7679L16.9496 15.0802L17.4991 15.9157ZM18.6174 18.5863L20.7035 17.2428L20.162 16.4021L18.0759 17.7455L18.6174 18.5863ZM13.9622 9.1656L11.9398 5.77497L11.081 6.28723L13.1034 9.67786L13.9622 9.1656ZM16.8989 11.5883L21.4943 18.4931L22.3268 17.9391L17.7314 11.0342L16.8989 11.5883ZM21.4982 18.4988C22.0393 19.2883 22.4786 19.6384 22.8966 19.7824L23.2223 18.8369C23.0961 18.7934 22.8098 18.6436 22.323 17.9334L21.4982 18.4988ZM22.8966 19.7824C23.0916 19.8495 23.3046 19.8817 23.5246 19.8462C23.7483 19.8101 23.9472 19.709 24.1166 19.5589L23.4535 18.8104C23.4113 18.8478 23.3833 18.8561 23.3652 18.859C23.3433 18.8625 23.2994 18.8635 23.2223 18.8369L22.8966 19.7824ZM24.1233 19.5529C24.3623 19.3333 24.4996 18.9971 24.5804 18.7339C24.6676 18.4502 24.7194 18.1477 24.7371 17.9095L23.7399 17.8353C23.7274 18.0033 23.6885 18.2319 23.6245 18.4403C23.5542 18.6693 23.4798 18.7861 23.4468 18.8164L24.1233 19.5529ZM24.7366 17.9162C24.7599 17.6516 24.8502 17.4281 24.9909 17.2828L24.2722 16.5874C23.9291 16.942 23.7776 17.4058 23.7404 17.8286L24.7366 17.9162ZM24.9909 17.2828C25.1259 17.1432 25.3221 17.0602 25.5688 17.0602V16.0602C25.0898 16.0602 24.6209 16.2271 24.2722 16.5874L24.9909 17.2828ZM25.5688 17.0602C25.6548 17.0602 25.6909 17.0613 25.746 17.0755L25.9962 16.1073C25.8094 16.0591 25.6642 16.0602 25.5688 16.0602V17.0602ZM25.746 17.0755C26.1336 17.1757 26.4504 17.553 26.492 17.9831L27.4874 17.8867C27.4081 17.067 26.8179 16.3196 25.9962 16.1073L25.746 17.0755ZM26.4938 17.9989C26.5128 18.1459 26.4968 18.6062 26.3346 19.1819C26.1755 19.7464 25.8899 20.3697 25.4163 20.8727L26.1444 21.5582C26.7592 20.9052 27.1085 20.1226 27.2971 19.453C27.4826 18.7945 27.5271 18.1926 27.4856 17.8709L26.4938 17.9989ZM25.4127 20.8766C24.8853 21.4489 24.2565 21.7465 23.6036 21.7465V22.7465C24.5834 22.7465 25.4661 22.2943 26.1481 21.5543L25.4127 20.8766ZM23.5675 21.7478C22.8037 21.8032 22.2004 21.6449 21.6774 21.2899C21.1419 20.9265 20.6523 20.3311 20.1735 19.4466L19.2941 19.9225C19.813 20.8814 20.3967 21.6294 21.1159 22.1174C21.8475 22.6139 22.6803 22.8148 23.6398 22.7452L23.5675 21.7478ZM20.1623 19.4269L16.4437 13.2407L15.5866 13.7559L19.3053 19.9421L20.1623 19.4269ZM12.696 5.27627L14.4343 7.89859L15.2678 7.34607L13.5295 4.72375L12.696 5.27627ZM18.4333 23.9686C18.4333 25.3666 17.3481 26.5 16 26.5V27.5C17.9408 27.5 19.4333 25.8776 19.4333 23.9686H18.4333ZM16 26.5C14.6866 26.5 13.5667 25.4025 13.5667 23.9686H12.5667C12.5667 25.9335 14.1133 27.5 16 27.5V26.5ZM13.5667 23.9686C13.5667 22.5706 14.6519 21.4372 16 21.4372V20.4372C14.0592 20.4372 12.5667 22.0596 12.5667 23.9686H13.5667ZM15.9856 21.437C17.3181 21.4753 18.4333 22.5886 18.4333 23.9686H19.4333C19.4333 22.0417 17.8818 20.491 16.0143 20.4374L15.9856 21.437ZM15.0475 15.0783L13.0219 13.766L12.4782 14.6053L14.5038 15.9175L15.0475 15.0783ZM13.6635 17.7455L11.5774 16.4021L11.036 17.2428L13.122 18.5863L13.6635 17.7455ZM18.4715 4.72227L9.64347 17.9384L10.475 18.4938L19.303 5.27773L18.4715 4.72227ZM9.64682 17.9334C9.16003 18.6436 8.87375 18.7934 8.74754 18.8369L9.07324 19.7824C9.49123 19.6384 9.93053 19.2883 10.4717 18.4988L9.64682 17.9334ZM8.74754 18.8369C8.67043 18.8635 8.62649 18.8625 8.60463 18.859C8.5865 18.8561 8.55857 18.8478 8.51634 18.8104L7.85327 19.5589C8.02267 19.709 8.22148 19.8101 8.44522 19.8462C8.66522 19.8817 8.87826 19.8495 9.07324 19.7824L8.74754 18.8369ZM8.52305 18.8164C8.49001 18.7861 8.41565 18.6693 8.34531 18.4403C8.28131 18.2319 8.24244 18.0033 8.22993 17.8353L7.23269 17.9095C7.25042 18.1477 7.30224 18.4502 7.3894 18.7339C7.47023 18.9971 7.6075 19.3333 7.84655 19.5529L8.52305 18.8164ZM8.22939 17.8286C8.1922 17.4058 8.04067 16.942 7.6976 16.5874L6.97896 17.2828C7.11962 17.4281 7.20996 17.6516 7.23323 17.9162L8.22939 17.8286ZM7.6976 16.5874C7.34892 16.2271 6.88002 16.0602 6.40106 16.0602V17.0602C6.6477 17.0602 6.84392 17.1432 6.97896 17.2828L7.6976 16.5874ZM6.40106 16.0602C6.30567 16.0602 6.1604 16.0591 5.97366 16.1073L6.22381 17.0755C6.27893 17.0613 6.31506 17.0602 6.40106 17.0602V16.0602ZM5.99244 16.1028C5.17574 16.2805 4.59095 17.0466 4.51268 17.8555L5.50803 17.9518C5.55068 17.511 5.87288 17.1523 6.20503 17.08L5.99244 16.1028ZM4.51446 17.8397C4.47296 18.1613 4.51741 18.7633 4.70292 19.4218C4.89155 20.0913 5.24084 20.874 5.85562 21.527L6.58371 20.8415C6.11011 20.3385 5.82451 19.7152 5.66546 19.1506C5.50329 18.575 5.48728 18.1146 5.50624 17.9676L4.51446 17.8397ZM5.85199 21.5231C6.53391 22.263 7.4167 22.7153 8.39643 22.7153V21.7153C7.74359 21.7153 7.11473 21.4177 6.58734 20.8454L5.85199 21.5231ZM8.36027 22.714C9.3198 22.7836 10.1526 22.5826 10.8842 22.0862C11.6033 21.5982 12.187 20.8501 12.706 19.8913L11.8265 19.4153C11.3478 20.2998 10.8582 20.8953 10.3227 21.2587C9.79962 21.6136 9.19634 21.772 8.4326 21.7166L8.36027 22.714ZM12.6947 19.911L20.8878 6.28875L20.0309 5.77334L11.8378 19.3956L12.6947 19.911Z" fill="black"/>
</svg>

<svg width="32" height="32" fill="none" xmlns="http://www.w3.org/2000/svg"><path d="M13.103 9.678a.5.5 0 1 0 .86-.512l-.86.512ZM11.94 5.775a.5.5 0 1 0-.859.512l.859-.512Zm9.97 12.441-.416.277.004.006.413-.283Zm1.875.969.332.374.006-.006-.338-.368Zm.453-1.313-.498-.043v.006l.498.037Zm1.633-1.28-.125.484.125-.485Zm1.119 1.343-.498.048v.008l.002.008.496-.064Zm-1.21 3.28-.364-.342-.003.004.367.338Zm-2.176 1.032v-.5h-.036l.036.5Zm-3.87-2.563.44-.237-.006-.01-.006-.01-.428.258Zm-6.205-14.96a.5.5 0 1 0-.833.552l.834-.552Zm.905 3.175a.5.5 0 0 0 .834-.553l-.834.553ZM16 20.937l.014-.5H16v.5Zm3.303-15.66a.5.5 0 1 0-.832-.555l.832.556Zm-9.244 12.94.413.282.003-.005-.416-.278Zm-1.874.968-.339.368.007.006.332-.374Zm-.454-1.313.499-.037v-.006l-.499.043ZM6.1 16.592l.106.488.01-.002.009-.002-.125-.485ZM5.01 17.903l.496.064.001-.008.001-.008-.498-.048Zm1.21 3.28.367-.339-.003-.003-.364.342Zm2.176 1.031.037-.498-.018-.002h-.019v.5Zm3.87-2.562-.428-.257-.006.01-.006.01.44.237ZM20.888 6.29a.5.5 0 0 0-.857-.516l.857.516Zm-3.389 9.627 1.995-1.313-.549-.835-1.995 1.312.55.836Zm1.118 2.67 2.086-1.343-.541-.84-2.086 1.343.541.84Zm-4.655-9.42L11.94 5.775l-.859.512 2.022 3.39.86-.511Zm2.937 2.422 4.595 6.905.833-.554-4.596-6.905-.832.554Zm4.6 6.91c.54.79.98 1.14 1.398 1.284l.325-.945c-.126-.044-.412-.193-.899-.904l-.825.566Zm1.398 1.284c.195.067.408.1.628.064.223-.036.422-.137.592-.287l-.664-.749c-.042.038-.07.046-.088.049a.301.301 0 0 1-.143-.022l-.325.945Zm1.226-.23c.24-.219.377-.555.457-.818.088-.284.14-.586.157-.825l-.997-.074a2.937 2.937 0 0 1-.115.605c-.07.23-.145.346-.178.376l.676.737Zm.614-1.636c.023-.264.113-.488.254-.633l-.719-.696c-.343.355-.494.819-.532 1.242l.997.087Zm.254-.633a.78.78 0 0 1 .578-.223v-1c-.48 0-.948.167-1.297.527l.719.696Zm.578-.223c.086 0 .122.001.177.016l.25-.969c-.187-.048-.332-.047-.427-.047v1Zm.177.016c.388.1.704.477.746.907l.995-.096c-.079-.82-.67-1.567-1.49-1.78l-.251.969Zm.748.923c.019.147.003.607-.16 1.183-.159.564-.444 1.188-.918 1.69l.728.686c.615-.653.965-1.435 1.153-2.105.186-.659.23-1.26.189-1.582l-.992.128Zm-1.081 2.878c-.528.572-1.157.87-1.81.87v1c.98 0 1.863-.453 2.545-1.193l-.735-.677Zm-1.846.87c-.763.056-1.367-.102-1.89-.457-.535-.363-1.025-.959-1.503-1.843l-.88.476c.519.958 1.103 1.706 1.822 2.194.732.497 1.564.698 2.524.628l-.073-.997Zm-3.405-2.32-3.718-6.186-.857.515 3.718 6.186.857-.515Zm-7.466-14.15 1.738 2.622.834-.553-1.739-2.622-.833.552Zm5.737 18.692c0 1.398-1.085 2.531-2.433 2.531v1c1.94 0 3.433-1.622 3.433-3.531h-1ZM16 26.5c-1.313 0-2.433-1.098-2.433-2.531h-1c0 1.964 1.546 3.531 3.433 3.531v-1Zm-2.433-2.531c0-1.398 1.085-2.532 2.433-2.532v-1c-1.94 0-3.433 1.623-3.433 3.532h1Zm2.419-2.532a2.54 2.54 0 0 1 2.447 2.532h1a3.54 3.54 0 0 0-3.419-3.532l-.028 1Zm-.939-6.359-2.025-1.312-.544.84 2.026 1.312.543-.84Zm-1.383 2.668-2.087-1.344-.541.84 2.086 1.344.542-.84ZM18.47 4.722 9.643 17.938l.832.556 8.828-13.216-.832-.556ZM9.647 17.933c-.487.71-.773.86-.9.904l.326.945c.418-.144.858-.494 1.399-1.283l-.825-.566Zm-.9.904a.301.301 0 0 1-.142.022c-.019-.003-.046-.011-.089-.049l-.663.749c.17.15.368.251.592.287.22.036.433.003.628-.064l-.325-.945Zm-.224-.02c-.033-.03-.107-.148-.178-.377a2.937 2.937 0 0 1-.115-.605l-.997.075c.017.238.07.54.156.824.081.263.218.6.458.819l.676-.737Zm-.294-.988c-.037-.423-.188-.887-.531-1.242l-.719.696c.14.145.231.369.254.633l.996-.087Zm-.531-1.242A1.777 1.777 0 0 0 6.4 16.06v1a.78.78 0 0 1 .578.223l.719-.696ZM6.4 16.06c-.095 0-.24 0-.427.047l.25.969a.621.621 0 0 1 .177-.016v-1Zm-.409.043c-.816.177-1.401.944-1.48 1.752l.996.097c.043-.441.365-.8.697-.872l-.213-.977ZM4.514 17.84c-.041.321.003.923.189 1.582.189.67.538 1.452 1.153 2.105l.728-.686c-.474-.503-.76-1.126-.919-1.69-.162-.576-.178-1.036-.159-1.183l-.992-.128Zm1.338 3.683c.682.74 1.565 1.192 2.544 1.192v-1c-.652 0-1.281-.297-1.809-.87l-.735.678Zm2.508 1.191c.96.07 1.793-.131 2.524-.628.72-.488 1.303-1.236 1.822-2.195l-.88-.476c-.478.885-.968 1.48-1.503 1.844-.523.355-1.127.513-1.89.458l-.073.997Zm4.335-2.803 8.193-13.622-.857-.516-8.193 13.623.857.515Z" fill="#000"/></svg>
